src/assets/imgs/icons/operate/ic_qr_code_line.svg

<?xml version="1.0" encoding="UTF-8"?>
<svg width="20px" height="20px" viewBox="0 0 20 20" version="1.1" xmlns="http://www.w3.org/2000/svg" xmlns:xlink="http://www.w3.org/1999/xlink">
    <!-- Generator: Sketch 50.2 (55047) - http://www.bohemiancoding.com/sketch -->
    <title>ic_qr_code_line</title>
    <desc>Created with Sketch.</desc>
    <defs></defs>
    <g id="Page-1" stroke="none" stroke-width="1" fill="none" fill-rule="evenodd">
        <g id="00A_Export" transform="translate(-720.000000, -91.000000)">
            <g id="ic_qr_code_line" transform="translate(720.000000, 91.000000)">
                <path d="M1,9.001 L9,9.001 L9,1 L1,1 L1,9.001 Z M2,8 L2,2.001 L8,2.001 L8,8 L2,8 Z M11,9.001 L11,1 L19.001,1 L19.001,9.001 L11,9.001 Z M12,8 L17.999,8 L17.999,2.001 L12,2.001 L12,8 Z M1,19.001 L1,11.001 L9,11.001 L9,19.001 L1,19.001 Z M2,18.001 L8,18.001 L8,12.001 L2,12.001 L2,18.001 Z M15,11.0011 L19,11.0011 L19,16.0011 L18,16.0011 L18,12.0011 L16,12.0011 L16,14.0011 L11,14.0011 L11,11.0011 L12,11.0011 L12,13.0011 L15,13.0011 L15,11.0011 Z M11.0004,16.0013 L12.0004,16.0013 L12.0004,18.0013 L19.0004,18.0013 L19.0004,19.0013 L11.0004,19.0013 L11.0004,16.0013 Z M14,6.001 L14,4.001 L16,4.001 L16,6.001 L14,6.001 Z M4,16.001 L4,14.001 L6,14.001 L6,16.001 L4,16.001 Z M4,6.001 L6,6.001 L6,4.001 L4,4.001 L4,6.001 Z" id="Combined-Shape" fill="#4F515E"></path>
                <rect id="Overlay" x="0" y="0" width="20" height="20"></rect>
            </g>
        </g>
    </g>
</svg>

<?xml version="1.0" encoding="utf-8"?>
<!-- Generator: Adobe Illustrator 23.0.1, SVG Export Plug-In . SVG Version: 6.00 Build 0)  -->
<svg version="1.1" id="图层_1" xmlns="http://www.w3.org/2000/svg" xmlns:xlink="http://www.w3.org/1999/xlink" x="0px" y="0px"
	 viewBox="0 0 20 20" style="enable-background:new 0 0 20 20;" xml:space="preserve">
<style type="text/css">
	.st0{fill-rule:evenodd;clip-rule:evenodd;fill:#666666;}
	.st1{fill:none;}
</style>
<title>ic_qr_code_line</title>
<desc>Created with Sketch.</desc>
<path id="Combined-Shape" class="st0" d="M1,9h8V1H1V9z M2,8V2h6v6H2z M11,9V1h8v8H11z M12,8h6V2h-6V8z M1,19v-8h8v8H1z M2,18h6v-6
	H2V18z M15,11h4v5h-1v-4h-2v2h-5v-3h1v2h3V11z M11,16h1v2h7v1h-8V16z M14,6V4h2v2H14z M4,16v-2h2v2H4z M4,6h2V4H4V6z"/>
<rect id="Overlay" y="0" class="st1" width="20" height="20"/>
</svg>
